outputs/icons/communication/qr_code_sharp.svg

<svg xmlns="http://www.w3.org/2000/svg" width="1200" height="1200" fill="none"><g clip-path="url(#a)"><path fill="#000" d="M475 325v150H325V325zm75-75H250v300h300zm-75 475v150H325V725zm75-75H250v300h300zm325-325v150H725V325zm75-75H650v300h300zM650 650h75v75h-75zm75 75h75v75h-75zm75-75h75v75h-75zM650 800h75v75h-75zm75 75h75v75h-75zm75-75h75v75h-75zm75-75h75v75h-75zm0 150h75v75h-75zm225-525h-100V200H850V100h250zm0 750V850h-100v150H850v100zm-1000 0h250v-100H200V850H100zm0-1000v250h100V200h150V100z"/></g><defs><clipPath id="a"><path fill="#fff" d="M0 0h1200v1200H0z"/></clipPath></defs></svg>

<svg width="1200" height="1200" viewBox="0 0 1200 1200" fill="none" xmlns="http://www.w3.org/2000/svg"><g clip-path="url(#clip0_124_698)"><path d="M475 325V475H325V325H475ZM550 250H250V550H550V250ZM475 725V875H325V725H475ZM550 650H250V950H550V650ZM875 325V475H725V325H875ZM950 250H650V550H950V250ZM650 650H725V725H650V650ZM725 725H800V800H725V725ZM800 650H875V725H800V650ZM650 800H725V875H650V800ZM725 875H800V950H725V875ZM800 800H875V875H800V800ZM875 725H950V800H875V725ZM875 875H950V950H875V875ZM1100 350H1000V200H850V100H1100V350ZM1100 1100V850H1000V1000H850V1100H1100ZM100 1100H350V1000H200V850H100V1100ZM100 100V350H200V200H350V100H100Z" fill="#1D1E23"/></g><defs><clipPath id="clip0_124_698"><path width="24" fill="white" d="M0 0H1200V1200H0V0z"/></clipPath></defs></svg>
